X: 2
T:Leinster Hornpipe (#307), The
M:4/4
L:1/8
S:Francis E. Walsh, San Francisco
R:Hornpipe
K:G
d>c|:(3BdB GB (3AcA FA|Gdgf edBG|F>GA>B cdef|gdBG A2 dc|
(3BdB GB (3AcA FA|G>Bgf edBG|F>GAB c>def|g2 f2 g2 z2:|
|dgfg d>gB>g|d>gf>g b>agf|eAfA eAfA|sedcBs sdcBAs|
GBDB GBDB|GBgf edBG|FGAB cdef|g2 f2 g2 z2|
|d>gfg d>gB>g|d>gfg b>agf|eAfA eAfA|e>dcB d>cBA|
GBDB GBDB|(3GAG g>f edBG|FGAB cdef|g2 f2 g2 z2||

